symbols/web/perm_device_information/materialsymbolsrounded/perm_device_information_grad200fill1_20px.svg

<svg xmlns="http://www.w3.org/2000/svg" height="20" width="20"><path d="M10 13.75q-.458 0-.802-.344-.344-.344-.344-.802v-2.146q0-.458.344-.802.344-.344.802-.344.458 0 .802.344.344.344.344.802v2.146q0 .458-.344.802-.344.344-.802.344Zm0-4.854q-.438 0-.76-.323-.323-.323-.323-.761 0-.437.323-.76.322-.323.76-.323t.76.323q.323.323.323.76 0 .438-.323.761-.322.323-.76.323ZM5.833 19.875q-.979 0-1.635-.656-.656-.657-.656-1.636V2.417q0-.979.656-1.636.656-.656 1.635-.656h8.334q.979 0 1.635.656.656.657.656 1.636v15.166q0 .979-.656 1.636-.656.656-1.635.656Zm0-5.25h8.334v-9.25H5.833Z"/></svg>

<svg xmlns="http://www.w3.org/2000/svg" height="20" width="20"><path d="M10 13.75Q9.542 13.75 9.198 13.406Q8.854 13.062 8.854 12.604V10.458Q8.854 10 9.198 9.656Q9.542 9.312 10 9.312Q10.458 9.312 10.802 9.656Q11.146 10 11.146 10.458V12.604Q11.146 13.062 10.802 13.406Q10.458 13.75 10 13.75ZM10 8.896Q9.562 8.896 9.24 8.573Q8.917 8.25 8.917 7.812Q8.917 7.375 9.24 7.052Q9.562 6.729 10 6.729Q10.438 6.729 10.76 7.052Q11.083 7.375 11.083 7.812Q11.083 8.25 10.76 8.573Q10.438 8.896 10 8.896ZM5.833 19.875Q4.854 19.875 4.198 19.219Q3.542 18.562 3.542 17.583V2.417Q3.542 1.438 4.198 0.781Q4.854 0.125 5.833 0.125H14.167Q15.146 0.125 15.802 0.781Q16.458 1.438 16.458 2.417V17.583Q16.458 18.562 15.802 19.219Q15.146 19.875 14.167 19.875ZM5.833 14.625H14.167V5.375H5.833Z"/></svg>
